X: 194
T: Linzhong laile bai qunzi
L: 1/4
M: 5/4
K: C
A/ c/cee/z3/ [I:setbarnb 1]| 
cee3 | 
eecc/Ac/ | 
ed/ec/A2 | 
cA>zce | 
d/ e/cd/ e/ez | 
ed/ e/cc/AE/ | 
ed/ e/cA2 |]

@@@ Tune index: 8862
